X:2
T:Les Anneaux de Marianson
R:Chanson
O:France
B:Le livre des Chansons (Henri Davenson) n°2
Z:<anamnese@caramail.com> -- http://anamnese.fr.st
M:6/8
L:1/8
Q:1/4=110
K:F
F c2 c | (cB) A c-B A | G2 A B2 c | (AG) F E2 F |
 G2 G A3-|A z2 c3 | (BA) G A2 G | F6 ||
W:Marianson, dame gentil,
W:Où est allé votre mari ?
W:- Il y a bien six mois et demi
W:Que Renaud est dedans Paris.
W:- Puisque Renaud n'est plus ici,
W:Il vous faut faire un autre ami.
W:- Non, si longtemps que je vivrai,
W:Autre que Renaud n'aimerai. /.../

